humanity-icon-theme/Humanity-Dark/apps/22/nm-stage03-connecting10.svg

<?xml version="1.0" encoding="UTF-8" standalone="no"?>
<!-- Created with Inkscape (http://www.inkscape.org/) -->

<svg
   xmlns:svg="http://www.w3.org/2000/svg"
   xmlns="http://www.w3.org/2000/svg"
   version="1.0"
   width="22"
   height="22"
   id="svg3315">
  <defs
     id="defs3317" />
  <path
     d="m 14.975351,13.496654 4.330519,2.500227"
     id="path3279"
     style="opacity:0.2;fill:none;stroke:#878787;stroke-width:0.99999994px;stroke-linecap:round;stroke-linejoin:miter;stroke-opacity:1" />
  <path
     d="M 3.7066075,6.9906439 8.0390875,9.492"
     id="path3281"
     style="fill:none;stroke:#878787;stroke-width:0.99999994px;stroke-linecap:round;stroke-linejoin:miter;stroke-opacity:1" />
  <path
     d="m 15.37553,12.530534 4.830067,1.294213"
     id="path2629"
     style="opacity:0.175;fill:none;stroke:#878787;stroke-width:0.99999994px;stroke-linecap:round;stroke-linejoin:miter;stroke-opacity:1" />
  <path
     d="m 2.8068792,9.162777 4.832256,1.294796"
     id="path2631"
     style="opacity:0.875;fill:none;stroke:#878787;stroke-width:0.99999994px;stroke-linecap:round;stroke-linejoin:miter;stroke-opacity:1" />
  <path
     d="m 15.512025,11.493761 5.000451,0"
     id="path3403"
     style="opacity:0.15;fill:none;stroke:#878787;stroke-width:0.99999994px;stroke-linecap:round;stroke-linejoin:miter;stroke-opacity:1" />
  <path
     d="m 2.5,11.493762 5.0027167,-1e-6"
     id="path3405"
     style="opacity:0.75;fill:none;stroke:#878787;stroke-width:0.99999994px;stroke-linecap:round;stroke-linejoin:miter;stroke-opacity:1" />
  <path
     d="M 15.375529,10.456987 20.205598,9.162778"
     id="path3407"
     style="opacity:0.125;fill:none;stroke:#878787;stroke-width:0.99999994px;stroke-linecap:round;stroke-linejoin:miter;stroke-opacity:1" />
  <path
     d="M 2.8068805,13.824745 7.6391345,12.52995"
     id="path3409"
     style="opacity:0.675;fill:none;stroke:#878787;stroke-width:0.99999994px;stroke-linecap:round;stroke-linejoin:miter;stroke-opacity:1" />
  <path
     d="M 14.975351,9.490867 19.30587,6.9906427"
     id="path3415"
     style="opacity:0.1;fill:none;stroke:#878787;stroke-width:0.99999994px;stroke-linecap:round;stroke-linejoin:miter;stroke-opacity:1" />
  <path
     d="M 3.7066065,15.99688 8.0390861,13.495522"
     id="path3417"
     style="opacity:0.6;fill:none;stroke:#878787;stroke-width:0.99999994px;stroke-linecap:round;stroke-linejoin:miter;stroke-opacity:1" />
  <path
     d="M 14.338755,8.661242 17.87461,5.1253895"
     id="path3419"
     style="opacity:0.075;fill:none;stroke:#878787;stroke-width:0.99999994px;stroke-linecap:round;stroke-linejoin:miter;stroke-opacity:1" />
  <path
     d="M 5.1378658,17.862132 8.6753205,14.324678"
     id="path3421"
     style="opacity:0.55;fill:none;stroke:#878787;stroke-width:0.99999994px;stroke-linecap:round;stroke-linejoin:miter;stroke-opacity:1" />
  <path
     d="M 13.509131,8.024649 16.009357,3.6941316"
     id="path3423"
     style="opacity:0.05;fill:none;stroke:#878787;stroke-width:0.99999994px;stroke-linecap:round;stroke-linejoin:miter;stroke-opacity:1" />
  <path
     d="M 7.00312,19.293393 9.504478,14.960912"
     id="path3425"
     style="opacity:0.5;fill:none;stroke:#878787;stroke-width:0.99999994px;stroke-linecap:round;stroke-linejoin:miter;stroke-opacity:1" />
  <path
     d="M 12.54301,7.624472 13.837224,2.7944048"
     id="path3427"
     style="opacity:0.025;fill:none;stroke:#878787;stroke-width:0.99999994px;stroke-linecap:round;stroke-linejoin:miter;stroke-opacity:1" />
  <path
     d="M 9.175251,20.193119 10.47005,15.360866"
     id="path3429"
     style="opacity:0.45;fill:none;stroke:#878787;stroke-width:0.99999994px;stroke-linecap:round;stroke-linejoin:miter;stroke-opacity:1" />
  <path
     d="m 11.50624,20.5 -3e-6,-5.002716"
     id="path3433"
     style="opacity:0.4;fill:none;stroke:#878787;stroke-width:0.99999994px;stroke-linecap:round;stroke-linejoin:miter;stroke-opacity:1" />
  <path
     d="M 13.837223,20.193118 12.542425,15.360865"
     id="path3437"
     style="opacity:0.35;fill:none;stroke:#878787;stroke-width:0.99999988px;stroke-linecap:round;stroke-linejoin:miter;stroke-opacity:1" />
  <path
     d="m 16.009357,19.293393 -2.501358,-4.33248"
     id="path2407"
     style="opacity:0.3;fill:none;stroke:#878787;stroke-width:0.99999994px;stroke-linecap:round;stroke-linejoin:miter;stroke-opacity:1" />
  <path
     d="M 17.874611,17.862132 14.337155,14.324677"
     id="path2413"
     style="opacity:0.25;fill:none;stroke:#878787;stroke-width:0.99999994px;stroke-linecap:round;stroke-linejoin:miter;stroke-opacity:1" />
  <path
     d="M 5.137866,5.1253908 8.6753212,8.662846"
     id="path2401"
     style="opacity:0;fill:none;stroke:#878787;stroke-width:0.99999994px;stroke-linecap:round;stroke-linejoin:miter;stroke-opacity:1" />
  <path
     d="m 9.175252,2.7944054 1.2948,4.8322523"
     id="path2405"
     style="opacity:0;fill:none;stroke:#878787;stroke-width:0.99999994px;stroke-linecap:round;stroke-linejoin:miter;stroke-opacity:1" />
  <path
     d="M 7.0031197,3.6941318 9.504479,8.026611"
     id="path2410"
     style="opacity:0;fill:none;stroke:#878787;stroke-width:0.99999994px;stroke-linecap:round;stroke-linejoin:miter;stroke-opacity:1" />
  <path
     d="m 11.506239,2.4875239 0,5.0027162"
     id="path2414"
     style="opacity:0;fill:none;stroke:#878787;stroke-width:0.99999994px;stroke-linecap:round;stroke-linejoin:miter;stroke-opacity:1" />
</svg>

<?xml version="1.0" encoding="UTF-8" standalone="no"?>
<!-- Created with Inkscape (http://www.inkscape.org/) -->
<svg id="svg3315" xmlns="http://www.w3.org/2000/svg" height="22" width="22" version="1.0">
 <path id="path3279" style="opacity:.2;stroke:#878787;stroke-linecap:round;stroke-width:1px;fill:none" d="m14.975 13.497 4.3305 2.5002"/>
 <path id="path3281" style="stroke:#878787;stroke-linecap:round;stroke-width:1px;fill:none" d="m3.7066 6.9906 4.3325 2.5014"/>
 <path id="path2629" style="opacity:.175;stroke:#878787;stroke-linecap:round;stroke-width:1px;fill:none" d="m15.376 12.531 4.8301 1.2942"/>
 <path id="path2631" style="opacity:.875;stroke:#878787;stroke-linecap:round;stroke-width:1px;fill:none" d="m2.8069 9.1628 4.8323 1.2948"/>
 <path id="path3403" style="opacity:.15;stroke:#878787;stroke-linecap:round;stroke-width:1px;fill:none" d="m15.512 11.494h5.0005"/>
 <path id="path3405" style="opacity:.75;stroke:#878787;stroke-linecap:round;stroke-width:1px;fill:none" d="m2.5 11.494 5.0027-0.000001"/>
 <path id="path3407" style="opacity:.125;stroke:#878787;stroke-linecap:round;stroke-width:1px;fill:none" d="m15.376 10.457 4.83-1.2942"/>
 <path id="path3409" style="opacity:.675;stroke:#878787;stroke-linecap:round;stroke-width:1px;fill:none" d="m2.8069 13.825 4.8322-1.295"/>
 <path id="path3415" style="opacity:.1;stroke:#878787;stroke-linecap:round;stroke-width:1px;fill:none" d="m14.975 9.4909 4.331-2.5003"/>
 <path id="path3417" style="opacity:.6;stroke:#878787;stroke-linecap:round;stroke-width:1px;fill:none" d="m3.7066 15.997 4.3325-2.501"/>
 <path id="path3419" style="opacity:.075;stroke:#878787;stroke-linecap:round;stroke-width:1px;fill:none" d="m14.339 8.6612 3.536-3.5358"/>
 <path id="path3421" style="opacity:.55;stroke:#878787;stroke-linecap:round;stroke-width:1px;fill:none" d="m5.1379 17.862 3.5374-3.537"/>
 <path id="path3423" style="opacity:.05;stroke:#878787;stroke-linecap:round;stroke-width:1px;fill:none" d="m13.509 8.0246 2.5-4.3305"/>
 <path id="path3425" style="opacity:.5;stroke:#878787;stroke-linecap:round;stroke-width:1px;fill:none" d="m7.0031 19.293 2.5014-4.332"/>
 <path id="path3427" style="opacity:.025;stroke:#878787;stroke-linecap:round;stroke-width:1px;fill:none" d="m12.543 7.6245 1.294-4.8301"/>
 <path id="path3429" style="opacity:.45;stroke:#878787;stroke-linecap:round;stroke-width:1px;fill:none" d="m9.1753 20.193 1.2947-4.832"/>
 <path id="path3433" style="opacity:.4;stroke:#878787;stroke-linecap:round;stroke-width:1px;fill:none" d="m11.506 20.5-0.000003-5.0027"/>
 <path id="path3437" style="opacity:.35;stroke:#878787;stroke-linecap:round;stroke-width:1px;fill:none" d="m13.837 20.193-1.295-4.832"/>
 <path id="path2407" style="opacity:.3;stroke:#878787;stroke-linecap:round;stroke-width:1px;fill:none" d="m16.009 19.293-2.5014-4.3325"/>
 <path id="path2413" style="opacity:.25;stroke:#878787;stroke-linecap:round;stroke-width:1px;fill:none" d="m17.875 17.862-3.538-3.537"/>
 <path id="path2401" style="opacity:0;stroke-width:1px" d="m5.1379 5.1254 3.5374 3.5374"/>
 <path id="path2405" style="opacity:0;stroke-width:1px" d="m9.1753 2.7944 1.2948 4.8323"/>
 <path id="path2410" style="opacity:0;stroke-width:1px" d="m7.0031 3.6941 2.5014 4.3325"/>
 <path id="path2414" style="opacity:0;stroke-width:1px" d="m11.506 2.4875v5.0027"/>
</svg>
